X:1
T:Amiens, CMD
T:Amiens, CMD
T:Oratory Hymn-Book, before 1903
T:Public Domain Courtesy of the Cyber Hymnal™
C:Oratory Hymn-Book, before 1903
Z:Public Domain
Z:Courtesy of the Cyber Hymnal™
%%score ( 1 2 ) ( 3 4 )
L:1/8
Q:1/4=135
M:3/4
K:E
V:1 treble 
V:2 treble 
V:3 bass 
V:4 bass 
V:1
 B,2 | (E2 D2) [B,E]2 | ([DF]2 [CE]2) [DF]2 | [EG]4 [CG]2 | [DF]4 [DF]2 | ([EG]2 [FA]2) [GB]2 | %6
 ([FA]2 [EG]2) [DF]2 | E6- | [B,E]4 B,2 | (E2 D2) [B,E]2 | ([DF]2 [CE]2) [DF]2 | [EG]4 [CG]2 | %12
 [DF]4 [DF]2 | ([EG]2 [FA]2) [GB]2 | ([FA]2 [EG]2) [DF]2 | E6- | [B,E]4 [GB]2 | [GB]4 [FA]2 | %18
 ([EG]2 [FA]2) [FB]2 | [FB]4 [^EB]2 | [FA]4 [FA]2 | ([EG]2 [DF]2) [EG]2 | (B2 A2) [EG]2 | F6- | %24
 [DF]4 [B,E]2 | [B,E]4 [EG]2 | [EG]4 [DB]2 | [DB]4 [Ec]2 | [Ec]4 [Ad]2 | (e2 B2) [EG]2 | %30
 ([FA]2 [EG]2) [DF]2 | E6- | E4 |] %33
V:2
 B,2 | B,4 x2 | x6 | x6 | x6 | x6 | x6 | E2 C2 A,2 | x4 B,2 | B,4 x2 | x6 | x6 | x6 | x6 | x6 | %15
 E2 C2 A,2 | x6 | x6 | x6 | x6 | x6 | x6 | F4 x2 | D2 B,2 C2 | x6 | x6 | x6 | x6 | x6 | G4 x2 | %30
 x6 | E6- | E4 |] %33
V:3
 B,,2 | ([G,,E,]2 [F,,F,]2) [E,,G,]2 | [B,,B,]4 [B,,B,]2 | [E,B,]4 [F,^A,]2 | [B,,B,]4 [A,B,]2 | %5
 B,4 [E,B,]2 | ([A,,C]2 [B,,B,]2) [B,,B,]2 | G,2 A,2 G,2 | [E,G,]4 B,,2 | %9
 ([G,,E,]2 [F,,F,]2) [E,,G,]2 | [B,,B,]4 [B,,B,]2 | [E,B,]4 [F,^A,]2 | [B,,B,]4 [A,B,]2 | %13
 B,4 [E,B,]2 | ([A,,C]2 [B,,B,]2) [B,,A,]2 | G,2 A,2 G,2 | [E,G,]4 [E,E]2 | [E,E]4 [F,C]2 | %18
 [C,C]4 [=D,B,]2 | [B,,=D]4 [C,C]2 | [F,C]4 [D,B,]2 | B,4 [G,B,]2 | [D,B,]4 [E,B,]2 | B,2 D,2 E,2 | %24
 [B,,F,]4 [E,G,]2 | [E,G,]4 [C,E,]2 | [C,E,]4 [B,,F,]2 | [B,,F,]4 [A,,A,]2 | A,4 [F,B,]2 | %29
 B,4 [C,C]2 | ([A,,C]2 [B,,B,]2) [B,,A,]2 | [E,G,]6- | [E,G,]4 |] %33
V:4
 B,,2 | x6 | x6 | x6 | x6 | (G,2 F,2) x2 | x6 | E,6- | x4 B,,2 | x6 | x6 | x6 | x6 | (G,2 F,2) x2 | %14
 x6 | E,6- | x6 | x6 | x6 | x6 | x6 | (E,2 A,2) x2 | x6 | B,,6- | x6 | x6 | x6 | x6 | A,2 G,2 x2 | %29
 (E,2 G,,2) x2 | x6 | x6 | x4 |] %33

